X: 19438
T: Jackson's
R: polka
M: 2/4
K: Dmajor
fedc edcB|A2f2 d4|(3cec (3BcB (3GBG E2|(3BcB (3AdA (3FAF D2|
fedc edcB|A2f2 d4|(3cec (3BcB (3GBG (3EGE|Dd AF D2:|
|:(3AdA Bc defg|(3aba (3faf (3dfd A2|(3gag (3ege (3c cec A2|(3faf (3dfd (3AdA F2|
(3AdA Bc defg|(3aba (3faf (3dfd A2|(3gag (3ege (3cec (3AcA|dd'af d4:|
|:(3AdA F2 (3dfd A2|fgfe dcdf|g2 gf efge|fgfe (3dfd (3BdB|
(3AdA F2 (3dfd A2|fgfe dcdf|g2 gf efge|dd'af d4:|
K:G
Bc^cd edBd|b8|Bc^cd edBd|f8|AB^cd edcd|
a2 (a2 a3)g|f4 e3^d|e2d2^c2=c2|Bc^cd edBd|b8|
ggfg agfg|e8|(3ege ^de agfe|d2b2g3d|(3faf ed ^c=cBA|
GgdB G4||Bc^cd edBd|gdBd gdBd|Bc^cd edcd|
fdAd fdAd|AB^cd ed^cd|agfe gfed|fed^c ed^c=c|
dd^cd edBG|Bc^cd edBd|b8|ggfg agfg|e8|
efgf agfe|d2b2g3d|(3faf ed ^c=cBA|1 GgdB G4:|2 G2GG G4||

